X:355
T: Qing nian can jun
N: C1297
O: China, Dongbei, Diqu
S: MM, ZHONGGUO MINGE XUAN S.42]
N: Pinyin-Text der ersten Strophe vorhanden!
R: Xiaodiao, Xiu Luoqun Diao, Jiandianhua diao. Geming lishi minge]
M: 2/4
L: 1/16
K: E
e2e2B2c2 | B6c2 | e2e2B2c2 | B8
G2B2c2Bc | e2e2c2B2 | B2G2F2G2 | B2G2B4
c2B2c2Bc | e2e2c2B2 | G2G4c2 | B2c2B2G2
F2E2F2F2 | z2B4G2 | F2B2G2F2 | E2E4F2 | E8
c2B2c2f2 | e2c2B2G2
F2E2F2F2 | z2B4G2 | F2B2G2F2 | E2E4F2 | E8

